X: 112
T: Pollonesse #112
M: 3/4
L: 1/16
R: Pollonesse
K: Gm
Q: 110
d2|dcBA G2GD CB,A,G,|G2GA BABc d4|B2dB A2cA G2d2|edcB B4 A2d2|
dcBA G2GD CB,A,G,|G2GA BABc d4|edcB dcBA cBAG|FGAF G4G,2:|
d2|defd f2(fe) d2(dc)|B2Bd c2ce d4|d2b2 c2a2 B2g2|cBAG FGAF D2:|

